!!!COM: Edouard Lalo
!!!CNT: Francais
!!!TXO: Francais
!!!OTL: Les petits coups
!!!OPR: 6 Romances Populaires
!!!ONM: No. 5
!!!LYR: Pierre Jean de Be/ranger
!!!ENC: Jacob Pegg
!!!YOR: Romantic French Song 1830-1870, David Tunley, ed., New !!!YOR: York: Garland Publishing, Inc., 1995, vol. 3
!!!ODT: 1849/
!!NB: Vocal melody and text only encoded.
!!NB: First instance of melodic material only encoded.
**kern	**silbe
*clef G2	*
*k[f#c#]	*
*M2/4	*
=4	=4
4r	.
8r	.
{16f#	{Mai^-
16g	-tres
=5	=5
8a	de
8d	tous
8c#	nos
8d	de/-
=6	=6
4.b}	-sirs,}
{16ee	{Re/-
16dd	-glons~
=7	=7
8cc#	~les
8b	sans
8a	les
8g	con-
=8	=8
[4f#	-train-
8f#]}	-dre;}
{16f#	{Plus
16g#	l'ex-
=9	=9
8a#	-ce\s
8f#	nuit
8e#	aux
8f#	plai-
=10	=10
[4dd	-sirs,
16dd]}	|}
{16cc#	{A-
16b	-mis,
16an	plus
=11	=11
8g#	nous
(16f#	de-
16e)	|
8dd	-vons
(16cc#	les
16b)	|
=12	=12
[4a;	crain-
16a]}	-dre!}
{16f#	{Au-
16f#	-tour
16g	d'u-
=13	=13
8a	-ne
8d	pe-
8c#	-ti-
8d	-te
=14	=14
[4b	ta-
16b]}	-ble,}
{16ee	{Dans
16ee	ce
16dd	pe-
=15	=15
8cc#	-tit
8b	coin
8a	fait
8g	pour
=16	=16
4.f#}	nous,}
{16f#	{Du
16g	vin
=17	=17
8a	vieux
(16g#	d'un-
16a)	|
8a#	ho^te
(16g#	ai-
16a#)	|
=18	=18
8b}	-mable}
{16a#	{Il
16b	faut
8cc#	boire,
16b	il
16cc#	faut
=19	=19
8dd	boire,
16a	il
16b	faut
16a	boire
16g	a\
16e	pe-
16a	-tits
=20	=20
2d}	coups!}
*-	*-
